public/logos/pse-logo-bg.svg

<svg fill="none" height="333" viewBox="0 0 333 333" width="333" xmlns="http://www.w3.org/2000/svg"><path d="m166.501 328.303c89.5 0 162.053-72.553 162.053-162.053 0-89.4988-72.553-162.05232-162.053-162.05232-89.4988 0-162.05225 72.55352-162.05225 162.05232 0 89.5 72.55345 162.053 162.05225 162.053z" fill="#002c00"/><g fill="#a3dff0"><path d="m166.5 332.5c-44.41 0-86.1541-17.293-117.5586-48.691-31.4046-31.397-48.6914-73.156-48.6914-117.559s17.2938-86.1541 48.6914-117.5586c31.3975-31.4046 73.1486-48.6914 117.5586-48.6914s86.155 17.2938 117.559 48.6914c31.398 31.3975 48.691 73.1486 48.691 117.5586s-17.293 86.155-48.691 117.559c-31.397 31.398-73.149 48.691-117.559 48.691zm0-324.10494c-42.164 0-81.8027 16.41934-111.6191 46.23584-29.8165 29.8164-46.23584 69.4551-46.23584 111.6191s16.41934 81.803 46.23584 111.62c29.8164 29.816 69.4551 46.235 111.6191 46.235s81.803-16.419 111.62-46.235c29.816-29.817 46.235-69.456 46.235-111.62s-16.419-81.8027-46.235-111.6191c-29.817-29.8165-69.456-46.23584-111.62-46.23584z"/><path d="m48.0012 149.327-22.121-4.61 1.6721-8.024c1.1613-5.562 4.7782-8.319 9.5563-7.325l.4828.098c4.7222.986 6.9609 4.967 5.8065 10.529l-.6436 3.099 6.2823 1.308-1.0284 4.932zm-16.8251-8.654 7.3037 1.525.6926-3.337c.4828-2.315-.6716-4.001-2.8683-4.456-2.2527-.469-3.9527.615-4.4354 2.931z"/><path d="m52.994 127.983-20.8268-8.759 3.414-8.122c2.1757-5.177 5.8556-7.43 10.4659-5.492l.4547.189c3.0292 1.273 4.4424 3.533 4.4284 6.422l9.5983-2.155-2.2596 5.38-8.514 1.714-1.4272 3.393 6.6251 2.785-1.9518 4.638zm-14.9432-11.746 6.6251 2.784 1.616-3.848c.8465-2.008.105-3.889-1.9099-4.729-1.9798-.832-3.8687-.063-4.7152 1.945z"/><path d="m63.2313 106.156-19.1197-11.6975 2.6304-4.2955 19.1198 11.697z"/><path d="m72.6336 92.2968-21.5264-9.2346 3.3441-3.9667 17.3987 7.8005.6716-.7976-10.8856-15.5239 3.2461-3.8477 13.0404 19.3087-5.2819 6.2683z"/><path d="m82.6995 80.3687-8.2762-22.107 6.3453-5.1 20.0224 12.6625-4.0718 3.2671-4.8971-3.1971-7.2967 5.8695 2.0918 5.4498-3.9247 3.1552zm5.4358-16.8601-7.5416-4.9251-.8885.7136 3.2391 8.388z"/><path d="m97.7281 54.9387-.3078-.6016c-2.5185-4.9531-2.0288-11.8511 4.8897-15.37 5.45-2.7704 10.732-1.3922 13.656 3.1482l-4.519 2.2946c-1.595-2.1827-4.302-2.6374-7.01-1.2593-3.561 1.812-4.246 5.4009-2.315 9.2066 1.909 3.7498 5.253 5.3169 8.919 3.456 2.764-1.4062 4.121-3.8897 3.323-6.4782l4.492-2.2806c1.749 4.6592.042 10.039-5.681 12.9493-7.227 3.6729-13.159-.5386-15.4539-5.058z"/><path d="m132.238 51.7769-2.281-8.1922-1.064.2939-10.032-11.6412 4.967-1.3852 7.129 8.535.945-.2658 1.245-10.8646 4.701-1.3083-2.064 15.0132-1.063.2938 2.281 8.1922z"/><path d="m161.021 44.0601-.154-5.7086-5.429.1469-.105-3.9876 5.429-.147-.154-5.7366 4.359-.1189.154 5.7366 5.463-.1469.105 3.9877-5.463.1469.154 5.7086z"/><path d="m184.924 40.926 4.765 1.0564c-.371 1.679.587 3.435 3.679 4.1206 2.729.6016 4.457-.2379 4.828-1.9169.314-1.4062-.644-2.4695-3.261-3.302l-1.616-.5177c-4.295-1.3293-6.541-4.4074-5.673-8.3041.93-4.1976 4.687-6.1005 9.57-5.0161 5.156 1.1403 7.612 4.6733 6.66 8.9617l-4.799-1.0633c.35-1.5881-.504-3.2601-2.784-3.7638-2.19-.4827-3.54.5037-3.862 1.9448-.28 1.2593.301 2.4556 2.281 3.0502l1.644.5247c4.673 1.4762 7.527 4.4984 6.625 8.549-.938 4.2255-4.995 6.2193-10.543 4.9881-5.968-1.3223-8.472-5.0581-7.528-9.3116z"/><path d="m209.606 42.6886.273-.6156c2.266-5.0721 7.933-9.0317 15.027-5.8626 5.575 2.4905 7.828 7.4646 6.142 12.5926l-4.624-2.0638c.699-2.6164-.658-5.002-3.435-6.2403-3.645-1.6301-6.87.0909-8.605 3.9876-1.714 3.8408-.833 7.4297 2.924 9.1087 2.834 1.2662 5.611.7556 7.122-1.4901l4.596 2.0568c-2.518 4.2884-7.779 6.3452-13.635 3.7288-7.401-3.3021-7.856-10.5708-5.785-15.1951z"/><path d="m227.705 63.0118 19.225-13.705 6.562 4.8132-7.066 22.6177-4.211-3.0852 1.826-5.5547-7.556-5.5408-4.722 3.428-4.065-2.9802zm17.693.9024 2.812-8.5629-.916-.6716-7.269 5.2958z"/><path d="m249.397 80.0541 16.336-15.349 3.449 3.6729-13.111 12.3267 6.017 6.4013-3.225 3.0292-9.466-10.0671z"/><path d="m261.895 94.3184 18.161-13.1313 2.952 4.0786-18.161 13.1313z"/><path d="m268.897 103.763 20.113-9.8992 3.645 7.4082-12.718 15.671.189.385 16.447-8.094 2.085 4.246-20.113 9.899-3.673-7.464 12.718-15.671-.189-.3847-16.447 8.0947-2.064-4.191z"/><path d="m291.018 125.758.657-.154c5.506-1.266 12.026 1.203 13.698 8.479 1.358 5.898-1.231 10.809-6.184 12.446l-1.126-4.904c2.301-.938 3.414-3.526 2.728-6.486-.881-3.826-4.267-5.414-8.339-4.477-4.281.986-6.541 4.023-5.583 8.185.511 2.218 1.735 3.855 3.295 4.597l1.826-.42-1.315-5.716 3.533-.811 2.763 12.026-3.533.811-.412-1.798-3.708.854c-3.449-1.162-5.905-4.184-6.905-8.528-1.798-7.843 3.19-12.859 8.605-14.104z"/><path d="m228.26 170.889c0 2.154-1.525 3.952-3.561 4.365-.287.063-.588.091-.896.091h-14.866c-2.463 0-4.456 1.994-4.456 4.456v14.867c0 1.539-.777 2.896-1.966 3.693-.476.322-1.015.553-1.595.672-.287.056-.588.091-.896.091h-14.866c-2.463 0-4.456 1.994-4.456 4.456v14.867c0 2.462-1.994 4.456-4.457 4.456h-14.866c-2.463 0-4.456-1.994-4.456-4.456v-14.867c0-2.462 1.993-4.456 4.456-4.456h14.866c2.463 0 4.457-1.994 4.457-4.456v-14.867c0-2.462 1.993-4.456 4.456-4.456h14.866c2.463 0 4.457-1.994 4.457-4.456v-19.323c0-13.103-10.599-23.73-23.695-23.779-13.09.049-23.695 10.676-23.695 23.779v19.323c0 2.462-1.994 4.456-4.457 4.456h-14.866c-2.463 0-4.456 1.994-4.456 4.456v38.646c0 2.462-1.994 4.456-4.457 4.456h-14.866c-2.463 0-4.456-1.994-4.456-4.456v-38.646c0-2.462 1.993-4.456 4.456-4.456h14.866c2.463 0 4.457-1.994 4.457-4.456v-19.407c0-26.221 21.253-47.474 47.474-47.474 26.22 0 47.474 21.253 47.474 47.474z"/><path d="m42.7092 236.818 18.9308-12.012 7.4367 11.718-3.5259 2.239-4.8062-7.57-4.0157 2.547 4.5404 7.157-3.526 2.238-4.5403-7.156-4.3304 2.749 4.9181 7.751-3.526 2.239-7.5485-11.9z"/><path d="m54.1342 254.259 13.733-2.365 3.2461-12.284 3.7288 4.078-2.2247 7.94.4757.525 8.0663-1.553 3.6238 3.967-12.7255 2.189-3.344 13.461-3.7498-4.1 2.4066-9.109-.4967-.545-9.1227 1.763-3.6238-3.967z"/><path d="m74.6526 275.233 13.614-18.029 6.5412 4.939c4.5333 3.421 5.4852 7.871 2.5395 11.767l-.2938.392c-2.9033 3.848-7.4646 4.177-11.991.756l-2.5255-1.903-3.8687 5.121-4.0157-3.036zm15.0062-11.516-4.4983 5.954 2.7214 2.05c1.8888 1.427 3.9037 1.098 5.2539-.686 1.3852-1.84 1.1333-3.841-.7556-5.268z"/><path d="m95.2985 289.651 10.3885-19.861 4.464 2.336-8.339 15.944 7.779 4.072-2.05 3.917-12.2425-6.401z"/><path d="m116.747 288.476.196-.644c1.616-5.316 7.227-9.808 14.776-7.506 7.52 2.287 9.731 9.157 8.108 14.474l-.196.644c-1.469 4.82-7.059 9.892-14.81 7.527-7.759-2.364-9.543-9.675-8.074-14.495zm18.099 5.191c1.217-3.995-.441-7.612-4.499-8.85-4.05-1.231-7.415.854-8.632 4.848-1.148 3.764.419 7.577 4.477 8.808 4.051 1.231 7.513-1.049 8.654-4.813z"/><path d="m145.515 307.295 1.931-22.52 8.779.756c5.597.482 8.871 3.288 8.444 8.276l-.042.489c-.279 3.274-1.993 5.317-4.75 6.185l5.002 8.472-5.813-.497-4.247-7.577-3.673-.314-.615 7.156-5.016-.433zm6.583-17.833-.616 7.157 4.163.357c2.168.189 3.729-1.099 3.917-3.267.182-2.141-1.133-3.701-3.302-3.89z"/><path d="m170.859 308.967 4.876-23.101 8.087-.902 10.109 21.428-5.191.581-2.413-5.324-9.312 1.036-1.154 5.722-5.002.553zm13.635-11.313-3.722-8.206-1.127.126-1.769 8.815 6.625-.735z"/><path d="m203.753 303.664-5.016-17.315-6.044 1.749-1.225-4.218 16.958-4.911 1.225 4.218-6.073 1.756 5.016 17.315-4.834 1.399z"/><path d="m221.58 297.536-9.046-20.512 4.611-2.036 9.045 20.512z"/><path d="m228.107 282.942-.37-.567c-3.037-4.659-2.876-11.837 3.742-16.139 6.584-4.289 13.272-1.574 16.301 3.085l.371.567c2.749 4.218 3.043 11.76-3.75 16.181-6.793 4.422-13.544 1.092-16.294-3.127zm15.601-10.529c-2.28-3.498-6.114-4.554-9.668-2.238-3.547 2.315-4.114 6.233-1.833 9.731 2.148 3.295 6.072 4.547 9.626 2.232 3.547-2.316 4.023-6.43 1.875-9.725z"/><path d="m261.298 272.959-16.125-15.573 5.737-5.939 19.049 6.66.301-.308-13.187-12.733 3.288-3.4 16.125 15.566-5.778 5.989-19.05-6.66-.301.307 13.187 12.733-3.239 3.358z"/><path d="m275.924 246.612 2.617-4.12c1.448.923 3.428.616 5.128-2.057 1.497-2.358 1.294-4.267-.161-5.191-1.217-.776-2.546-.231-4.219 1.945l-1.035 1.343c-2.714 3.589-6.373 4.646-9.738 2.505-3.631-2.302-4.142-6.485-1.455-10.711 2.833-4.456 6.989-5.562 10.696-3.211l-2.63 4.148c-1.371-.874-3.232-.636-4.484 1.337-1.204 1.889-.735 3.498.51 4.288 1.092.693 2.414.553 3.645-1.105l1.05-1.371c2.98-3.89 6.793-5.541 10.29-3.323 3.652 2.322 4.149 6.814 1.099 11.613-3.274 5.156-7.64 6.24-11.319 3.903z"/><path d="m39.8176 185.429-6.5802 1.344c-1.0865.222-1.7874 1.282-1.5656 2.369l1.3436 6.58c.2218 1.086 1.2824 1.787 2.3689 1.565l6.5802-1.343c1.0865-.222 1.7874-1.283 1.5656-2.369l-1.3435-6.58c-.2219-1.087-1.2825-1.788-2.369-1.566z"/><path d="m289.931 186.997-1.344 6.58c-.221 1.087.48 2.147 1.566 2.369l6.58 1.344c1.087.221 2.147-.479 2.369-1.566l1.344-6.58c.222-1.087-.479-2.147-1.566-2.369l-6.58-1.344c-1.087-.222-2.147.479-2.369 1.566z"/><path d="m166.5 270.797c-57.674 0-104.5957-46.922-104.5957-104.596s46.9217-104.5952 104.5957-104.5952 104.595 46.9212 104.595 104.5952-46.921 104.596-104.595 104.596zm0-204.9937c-55.359 0-100.3982 45.0397-100.3982 100.3977 0 55.359 45.0392 100.398 100.3982 100.398 55.358 0 100.398-45.039 100.398-100.398 0-55.358-45.04-100.3977-100.398-100.3977z"/></g></svg>

<svg width="333" height="333" viewBox="0 0 333 333" fill="none" xmlns="http://www.w3.org/2000/svg">
<path d="M166.501 328.303C256.001 328.303 328.554 255.75 328.554 166.25C328.554 76.7512 256.001 4.19768 166.501 4.19768C77.0022 4.19768 4.44875 76.7512 4.44875 166.25C4.44875 255.75 77.0022 328.303 166.501 328.303Z" fill="#002C00"/>
<path d="M166.5 332.5C122.09 332.5 80.3459 315.207 48.9414 283.809C17.5368 252.412 0.25 210.653 0.25 166.25C0.25 121.847 17.5438 80.0959 48.9414 48.6914C80.3389 17.2868 122.09 0 166.5 0C210.91 0 252.655 17.2938 284.059 48.6914C315.457 80.0889 332.75 121.84 332.75 166.25C332.75 210.66 315.457 252.405 284.059 283.809C252.662 315.207 210.91 332.5 166.5 332.5ZM166.5 8.39506C124.336 8.39506 84.6973 24.8144 54.8809 54.6309C25.0644 84.4473 8.64506 124.086 8.64506 166.25C8.64506 208.414 25.0644 248.053 54.8809 277.87C84.6973 307.686 124.336 324.105 166.5 324.105C208.664 324.105 248.303 307.686 278.12 277.87C307.936 248.053 324.355 208.414 324.355 166.25C324.355 124.086 307.936 84.4473 278.12 54.6309C248.303 24.8144 208.664 8.39506 166.5 8.39506Z" fill="#A3DFF0"/>
<path d="M48.0012 149.327L25.8802 144.717L27.5523 136.693C28.7136 131.131 32.3305 128.374 37.1086 129.368L37.5914 129.466C42.3136 130.452 44.5523 134.433 43.3979 139.995L42.7543 143.094L49.0366 144.402L48.0082 149.334L48.0012 149.327ZM31.1761 140.673L38.4798 142.198L39.1724 138.861C39.6552 136.546 38.5008 134.86 36.3041 134.405C34.0514 133.936 32.3514 135.02 31.8687 137.336L31.1761 140.673Z" fill="#A3DFF0"/>
<path d="M52.994 127.983L32.1672 119.224L35.5812 111.102C37.7569 105.925 41.4368 103.672 46.0471 105.61L46.5018 105.799C49.531 107.072 50.9442 109.332 50.9302 112.221L60.5285 110.066L58.2689 115.446L49.7549 117.16L48.3277 120.553L54.9528 123.338L53.001 127.976L52.994 127.983ZM38.0508 116.237L44.6759 119.021L46.2919 115.173C47.1384 113.165 46.3969 111.284 44.382 110.444C42.4022 109.612 40.5133 110.381 39.6668 112.389L38.0508 116.237Z" fill="#A3DFF0"/>
<path d="M63.2313 106.156L44.1116 94.4585L46.742 90.163L65.8618 101.86L63.2313 106.156Z" fill="#A3DFF0"/>
<path d="M72.6336 92.2968L51.1072 83.0622L54.4513 79.0955L71.85 86.896L72.5216 86.0984L61.636 70.5745L64.8821 66.7268L77.9225 86.0355L72.6406 92.3038L72.6336 92.2968Z" fill="#A3DFF0"/>
<path d="M82.6995 80.3687L74.4233 58.2617L80.7686 53.1617L100.791 65.8242L96.7192 69.0913L91.8221 65.8942L84.5254 71.7637L86.6172 77.2135L82.6925 80.3687H82.6995ZM88.1353 63.5086L80.5937 58.5835L79.7052 59.2971L82.9443 67.6851L88.1353 63.5086Z" fill="#A3DFF0"/>
<path d="M97.7281 54.9387L97.4203 54.3371C94.9018 49.384 95.3915 42.486 102.31 38.9671C107.76 36.1967 113.042 37.5749 115.966 42.1153L111.447 44.4099C109.852 42.2272 107.145 41.7725 104.437 43.1506C100.876 44.9626 100.191 48.5515 102.122 52.3572C104.031 56.107 107.375 57.6741 111.041 55.8132C113.805 54.407 115.162 51.9235 114.364 49.335L118.856 47.0544C120.605 51.7136 118.898 57.0934 113.175 60.0037C105.948 63.6766 100.016 59.4651 97.7211 54.9457L97.7281 54.9387Z" fill="#A3DFF0"/>
<path d="M132.238 51.7769L129.957 43.5847L128.893 43.8786L118.861 32.2374L123.828 30.8522L130.957 39.3872L131.902 39.1214L133.147 28.2568L137.848 26.9485L135.784 41.9617L134.721 42.2555L137.002 50.4477L132.238 51.7769Z" fill="#A3DFF0"/>
<path d="M161.021 44.0601L160.867 38.3515L155.438 38.4984L155.333 34.5108L160.762 34.3638L160.608 28.6272L164.967 28.5083L165.121 34.2449L170.584 34.098L170.689 38.0857L165.226 38.2326L165.38 43.9412L161.021 44.0601Z" fill="#A3DFF0"/>
<path d="M184.924 40.926L189.689 41.9824C189.318 43.6614 190.276 45.4174 193.368 46.103C196.097 46.7046 197.825 45.8651 198.196 44.1861C198.51 42.7799 197.552 41.7166 194.935 40.8841L193.319 40.3664C189.024 39.0371 186.778 35.959 187.646 32.0623C188.576 27.8647 192.333 25.9618 197.216 27.0462C202.372 28.1865 204.828 31.7195 203.876 36.0079L199.077 34.9446C199.427 33.3565 198.573 31.6845 196.293 31.1808C194.103 30.6981 192.753 31.6845 192.431 33.1256C192.151 34.3849 192.732 35.5812 194.712 36.1758L196.356 36.7005C201.029 38.1767 203.883 41.1989 202.981 45.2495C202.043 49.475 197.986 51.4688 192.438 50.2376C186.47 48.9153 183.966 45.1795 184.91 40.926H184.924Z" fill="#A3DFF0"/>
<path d="M209.606 42.6886L209.879 42.073C212.145 37.0009 217.812 33.0413 224.906 36.2104C230.481 38.7009 232.734 43.675 231.048 48.803L226.424 46.7392C227.123 44.1228 225.766 41.7372 222.989 40.4989C219.344 38.8688 216.119 40.5898 214.384 44.4865C212.67 48.3273 213.551 51.9162 217.308 53.5952C220.142 54.8614 222.919 54.3508 224.43 52.1051L229.026 54.1619C226.508 58.4503 221.247 60.5071 215.391 57.8907C207.99 54.5886 207.535 47.3199 209.606 42.6956V42.6886Z" fill="#A3DFF0"/>
<path d="M227.705 63.0118L246.93 49.3068L253.492 54.12L246.426 76.7377L242.215 73.6525L244.041 68.0978L236.485 62.557L231.763 65.985L227.698 63.0048L227.705 63.0118ZM245.398 63.9142L248.21 55.3513L247.294 54.6797L240.025 59.9755L245.398 63.9142Z" fill="#A3DFF0"/>
<path d="M249.397 80.0541L265.733 64.7051L269.182 68.378L256.071 80.7047L262.088 87.106L258.863 90.1352L249.397 80.0681V80.0541Z" fill="#A3DFF0"/>
<path d="M261.895 94.3184L280.056 81.1871L283.008 85.2657L264.847 98.397L261.895 94.3184Z" fill="#A3DFF0"/>
<path d="M268.897 103.763L289.01 93.8638L292.655 101.272L279.937 116.943L280.126 117.328L296.573 109.234L298.658 113.48L278.545 123.379L274.872 115.915L287.59 100.244L287.401 99.8593L270.954 107.954L268.89 103.763H268.897Z" fill="#A3DFF0"/>
<path d="M291.018 125.758L291.675 125.604C297.181 124.338 303.701 126.807 305.373 134.083C306.731 139.981 304.142 144.892 299.189 146.529L298.063 141.625C300.364 140.687 301.477 138.099 300.791 135.139C299.91 131.313 296.524 129.725 292.452 130.662C288.171 131.648 285.911 134.685 286.869 138.847C287.38 141.065 288.604 142.702 290.164 143.444L291.99 143.024L290.675 137.308L294.208 136.497L296.971 148.523L293.438 149.334L293.026 147.536L289.318 148.39C285.869 147.228 283.413 144.206 282.413 139.862C280.615 132.019 285.603 127.003 291.018 125.758Z" fill="#A3DFF0"/>
<path d="M228.26 170.889C228.26 173.043 226.735 174.841 224.699 175.254C224.412 175.317 224.111 175.345 223.803 175.345H208.937C206.474 175.345 204.481 177.339 204.481 179.801V194.668C204.481 196.207 203.704 197.564 202.515 198.361C202.039 198.683 201.5 198.914 200.92 199.033C200.633 199.089 200.332 199.124 200.024 199.124H185.158C182.695 199.124 180.702 201.118 180.702 203.58V218.447C180.702 220.909 178.708 222.903 176.245 222.903H161.379C158.916 222.903 156.923 220.909 156.923 218.447V203.58C156.923 201.118 158.916 199.124 161.379 199.124H176.245C178.708 199.124 180.702 197.13 180.702 194.668V179.801C180.702 177.339 182.695 175.345 185.158 175.345H200.024C202.487 175.345 204.481 173.351 204.481 170.889V151.566C204.481 138.463 193.882 127.836 180.786 127.787C167.696 127.836 157.091 138.463 157.091 151.566V170.889C157.091 173.351 155.097 175.345 152.634 175.345H137.768C135.305 175.345 133.312 177.339 133.312 179.801V218.447C133.312 220.909 131.318 222.903 128.855 222.903H113.989C111.526 222.903 109.533 220.909 109.533 218.447V179.801C109.533 177.339 111.526 175.345 113.989 175.345H128.855C131.318 175.345 133.312 173.351 133.312 170.889V151.482C133.312 125.261 154.565 104.008 180.786 104.008C207.006 104.008 228.26 125.261 228.26 151.482V170.889Z" fill="#A3DFF0"/>
<path d="M42.7092 236.818L61.64 224.806L69.0767 236.524L65.5508 238.763L60.7446 231.193L56.7289 233.74L61.2693 240.897L57.7433 243.135L53.203 235.979L48.8726 238.728L53.7907 246.479L50.2647 248.718L42.7162 236.818H42.7092Z" fill="#A3DFF0"/>
<path d="M54.1342 254.259L67.8672 251.894L71.1133 239.61L74.8421 243.688L72.6174 251.628L73.0931 252.153L81.1594 250.6L84.7832 254.567L72.0577 256.756L68.7137 270.217L64.9639 266.117L67.3705 257.008L66.8738 256.463L57.7511 258.226L54.1273 254.259H54.1342Z" fill="#A3DFF0"/>
<path d="M74.6526 275.233L88.2666 257.204L94.8078 262.143C99.3411 265.564 100.293 270.014 97.3473 273.91L97.0535 274.302C94.1502 278.15 89.5889 278.479 85.0625 275.058L82.537 273.155L78.6683 278.276L74.6526 275.24V275.233ZM89.6588 263.717L85.1605 269.671L87.8819 271.721C89.7707 273.148 91.7856 272.819 93.1358 271.035C94.521 269.195 94.2691 267.194 92.3802 265.767L89.6588 263.717Z" fill="#A3DFF0"/>
<path d="M95.2985 289.651L105.687 269.79L110.151 272.126L101.812 288.07L109.591 292.142L107.541 296.059L95.2985 289.658V289.651Z" fill="#A3DFF0"/>
<path d="M116.747 288.476L116.943 287.832C118.559 282.516 124.17 278.024 131.719 280.326C139.239 282.613 141.45 289.483 139.827 294.8L139.631 295.444C138.162 300.264 132.572 305.336 124.821 302.971C117.062 300.607 115.278 293.296 116.747 288.476ZM134.846 293.667C136.063 289.672 134.405 286.055 130.347 284.817C126.297 283.586 122.932 285.671 121.715 289.665C120.567 293.429 122.134 297.242 126.192 298.473C130.243 299.704 133.705 297.424 134.846 293.66V293.667Z" fill="#A3DFF0"/>
<path d="M145.515 307.295L147.446 284.775L156.225 285.531C161.822 286.013 165.096 288.819 164.669 293.807L164.627 294.296C164.348 297.57 162.634 299.613 159.877 300.481L164.879 308.953L159.066 308.456L154.819 300.879L151.146 300.565L150.531 307.721L145.515 307.288V307.295ZM152.098 289.462L151.482 296.619L155.645 296.976C157.813 297.165 159.374 295.877 159.562 293.709C159.744 291.568 158.429 290.008 156.26 289.819L152.098 289.462Z" fill="#A3DFF0"/>
<path d="M170.859 308.967L175.735 285.866L183.822 284.964L193.931 306.392L188.74 306.973L186.327 301.649L177.015 302.685L175.861 308.407L170.859 308.96V308.967ZM184.494 297.654L180.772 289.448L179.645 289.574L177.876 298.389L184.501 297.654H184.494Z" fill="#A3DFF0"/>
<path d="M203.753 303.664L198.737 286.349L192.693 288.098L191.468 283.88L208.426 278.969L209.651 283.187L203.578 284.943L208.594 302.258L203.76 303.657L203.753 303.664Z" fill="#A3DFF0"/>
<path d="M221.58 297.536L212.534 277.024L217.145 274.988L226.19 295.5L221.58 297.536Z" fill="#A3DFF0"/>
<path d="M228.107 282.942L227.737 282.375C224.7 277.716 224.861 270.538 231.479 266.236C238.063 261.947 244.751 264.662 247.78 269.321L248.151 269.888C250.9 274.106 251.194 281.648 244.401 286.069C237.608 290.491 230.857 287.161 228.107 282.942ZM243.708 272.413C241.428 268.915 237.594 267.859 234.04 270.175C230.493 272.49 229.926 276.408 232.207 279.906C234.355 283.201 238.279 284.453 241.833 282.138C245.38 279.822 245.856 275.708 243.708 272.413Z" fill="#A3DFF0"/>
<path d="M261.298 272.959L245.173 257.386L250.91 251.447L269.959 258.107L270.26 257.799L257.073 245.066L260.361 241.666L276.486 257.232L270.708 263.221L251.658 256.561L251.357 256.868L264.544 269.601L261.305 272.959H261.298Z" fill="#A3DFF0"/>
<path d="M275.924 246.612L278.541 242.492C279.989 243.415 281.969 243.108 283.669 240.435C285.166 238.077 284.963 236.168 283.508 235.244C282.291 234.468 280.962 235.013 279.289 237.189L278.254 238.532C275.54 242.121 271.881 243.178 268.516 241.037C264.885 238.735 264.374 234.552 267.061 230.326C269.894 225.87 274.05 224.764 277.757 227.115L275.127 231.263C273.756 230.389 271.895 230.627 270.643 232.6C269.439 234.489 269.908 236.098 271.153 236.888C272.245 237.581 273.567 237.441 274.798 235.783L275.848 234.412C278.828 230.522 282.641 228.871 286.138 231.089C289.79 233.411 290.287 237.903 287.237 242.702C283.963 247.858 279.597 248.942 275.918 246.605L275.924 246.612Z" fill="#A3DFF0"/>
<path d="M39.8176 185.429L33.2374 186.773C32.1509 186.995 31.45 188.055 31.6718 189.142L33.0154 195.722C33.2372 196.808 34.2978 197.509 35.3843 197.287L41.9645 195.944C43.051 195.722 43.7519 194.661 43.5301 193.575L42.1866 186.995C41.9647 185.908 40.9041 185.207 39.8176 185.429Z" fill="#A3DFF0"/>
<path d="M289.931 186.997L288.587 193.577C288.366 194.664 289.067 195.724 290.153 195.946L296.733 197.29C297.82 197.511 298.88 196.811 299.102 195.724L300.446 189.144C300.668 188.057 299.967 186.997 298.88 186.775L292.3 185.431C291.213 185.209 290.153 185.91 289.931 186.997Z" fill="#A3DFF0"/>
<path d="M166.5 270.797C108.826 270.797 61.9043 223.875 61.9043 166.201C61.9043 108.527 108.826 61.6058 166.5 61.6058C224.174 61.6058 271.095 108.527 271.095 166.201C271.095 223.875 224.174 270.797 166.5 270.797ZM166.5 65.8033C111.141 65.8033 66.1018 110.843 66.1018 166.201C66.1018 221.56 111.141 266.599 166.5 266.599C221.858 266.599 266.898 221.56 266.898 166.201C266.898 110.843 221.858 65.8033 166.5 65.8033Z" fill="#A3DFF0"/>
</svg>
